("../Setup/Setup.scd").loadRelative;


(
~mix.ar;
(
~verb = {
	XFade2.ar(
		LPF.ar(
			GVerb.ar(
				~mix.ar(1), 80,8, maxroomsize:1000),
			8500
		),
		~mix, \pan.kr(0,0.5),\rel.kr(0.15)
	)
};
~verb.play;
)
)


∫